brandFactory_export/2.Regular/Biblioteca_2Regular.svg

<?xml version="1.0" encoding="UTF-8"?>
<svg width="24px" height="24px" viewBox="0 0 24 24" version="1.1" xmlns="http://www.w3.org/2000/svg" xmlns:xlink="http://www.w3.org/1999/xlink">
    <title>2.Regular/Biblioteca_2Regular</title>
    <g id="Symbols" stroke="none" stroke-width="1" fill="none" fill-rule="evenodd">
        <g id="2.Regular/Biblioteca_2Regular" fill="#5CB615" fill-rule="nonzero">
            <path d="M22.1176471,17.7747899 C17.7546218,17.902521 14.2588235,19.0957983 12.5647059,19.7983193 L12.5647059,5.42184874 C16.2453782,3.61680672 20.4773109,3.48571429 22.1176471,3.51596639 L22.1176471,17.7747899 Z M1.50588235,3.51596639 C3.14621849,3.49579832 7.36806723,3.61344538 11.0588235,5.42184874 L11.0588235,19.7983193 C9.36806723,19.0991597 5.86890756,17.902521 1.50588235,17.7747899 L1.50588235,3.51596639 Z M22.9310924,2.05714286 C22.6789916,2.03697479 16.8638655,1.62352941 11.8117647,4.13781513 C6.76302521,1.62016807 0.94789916,2.03697479 0.695798319,2.05714286 C0.302521008,2.08739496 0.00336134454,2.41008403 0.00336134454,2.8 L0.00336134454,18.5109244 C0.00336134454,18.9210084 0.339495798,19.2571429 0.756302521,19.2571429 C6.82689076,19.2571429 11.4184874,21.5966387 11.4655462,21.6201681 C11.5764706,21.6773109 11.6941176,21.7042017 11.8151261,21.7042017 C11.8453782,21.7042017 11.8722689,21.6840336 11.9058824,21.6806723 C11.9966387,21.6705882 12.0840336,21.6605042 12.1680672,21.6168067 C12.1714286,21.6168067 12.1915966,21.6067227 12.205042,21.5966387 C12.5983193,21.4016807 17.0319328,19.2537815 22.8739496,19.2537815 C23.2907563,19.2537815 23.6268908,18.9210084 23.6268908,18.507563 L23.6268908,2.79663866 C23.6235294,2.41008403 23.3210084,2.08739496 22.9310924,2.05714286 Z" id="Biblioteca_2Regular"></path>
        </g>
    </g>
</svg>

<svg width="24" height="24" viewBox="0 0 24 24" xmlns="http://www.w3.org/2000/svg"><path d="M22.118 17.775c-4.363.128-7.86 1.32-9.553 2.023V5.422c3.68-1.805 7.912-1.936 9.553-1.906v14.259zM1.506 3.516c1.64-.02 5.862.097 9.553 1.906v14.376c-1.69-.699-5.19-1.895-9.553-2.023V3.516zM22.93 2.057c-.252-.02-6.067-.433-11.12 2.08C6.764 1.62.949 2.038.697 2.058a.745.745 0 00-.693.743v15.71c0 .411.336.747.753.747 6.07 0 10.662 2.34 10.71 2.363.11.057.228.084.35.084.03 0 .056-.02.09-.023a.715.715 0 00.299-.084c.393-.195 4.827-2.343 10.669-2.343a.748.748 0 00.753-.746V2.797a.752.752 0 00-.696-.74z" fill="#5CB615" fill-rule="nonzero"/></svg>
